assets/Cross mark button/Flat/cross_mark_button_flat.svg

<svg width="32" height="32" viewBox="0 0 32 32" fill="none" xmlns="http://www.w3.org/2000/svg">
<path d="M2 6C2 3.79086 3.79086 2 6 2H26C28.2091 2 30 3.79086 30 6V26C30 28.2091 28.2091 30 26 30H6C3.79086 30 2 28.2091 2 26V6Z" fill="#00D26A"/>
<path d="M21.5643 8.31434C22.1501 7.72855 23.0999 7.72855 23.6857 8.31434C24.2714 8.90013 24.2714 9.84987 23.6857 10.4357L18.1213 16L23.6857 21.5643C24.2714 22.1501 24.2714 23.0999 23.6857 23.6857C23.0999 24.2714 22.1501 24.2714 21.5643 23.6857L16 18.1213L10.4357 23.6857C9.84987 24.2714 8.90013 24.2714 8.31434 23.6857C7.72855 23.0999 7.72855 22.1501 8.31434 21.5643L13.8787 16L8.31434 10.4357C7.72855 9.84987 7.72855 8.90013 8.31434 8.31434C8.90013 7.72855 9.84987 7.72855 10.4357 8.31434L16 13.8787L21.5643 8.31434Z" fill="white"/>
</svg>

<svg xmlns="http://www.w3.org/2000/svg" width="32" height="32" fill="none"><path fill="#00D26A" d="M2 6a4 4 0 0 1 4-4h20a4 4 0 0 1 4 4v20a4 4 0 0 1-4 4H6a4 4 0 0 1-4-4V6Z"/><path fill="#fff" d="M21.564 8.314a1.5 1.5 0 0 1 2.122 2.122L18.12 16l5.565 5.564a1.5 1.5 0 0 1-2.122 2.122L16 18.12l-5.564 5.565a1.5 1.5 0 0 1-2.122-2.122L13.88 16l-5.565-5.564a1.5 1.5 0 0 1 2.122-2.122L16 13.88l5.564-5.565Z"/></svg>
